assets/img/tasses/TasseHammerfest.svg

<?xml version="1.0" encoding="utf-8"?>
<!-- generated at drububu.com  -->
<!DOCTYPE svg PUBLIC "-//W3C//DTD SVG 1.1//EN" "http://www.w3.org/Graphics/SVG/1.1/DTD/svg11.dtd">
<svg version="1.1" preserveAspectRatio="xMinYMin meet" xmlns="http://www.w3.org/2000/svg" xmlns:xlink="http://www.w3.org/1999/xlink" x="0px" y="0px" width="22px" height="16px" viewBox="0 0 22 16">
<path d="M0 0h2v2h-2v-2z" fill="rgba(255,255,255,0)"/>
<path d="M2 0h14v2h-14v-2z" fill="rgb(37,37,37)"/>
<path d="M16 0h6v4h-2v-2h-4v-2z" fill="rgba(255,255,255,0)"/>
<path d="M0 2h2v10h-2v-10z" fill="rgb(37,37,37)"/>
<path d="M2 2h1v1h-1v-1z" fill="rgb(197,211,223)"/>
<path d="M3 2h1v1h-1v-1z" fill="rgb(189,208,227)"/>
<path d="M4 2h1v1h-1v-1z" fill="rgb(183,210,224)"/>
<path d="M5 2h1v1h-1v-1z" fill="rgb(195,210,223)"/>
<path d="M6 2h1v1h-1v-1z" fill="rgb(182,211,229)"/>
<path d="M7 2h1v1h-1v-1z" fill="rgb(182,219,218)"/>
<path d="M8 2h1v1h-1v-1z" fill="rgb(188,223,221)"/>
<path d="M9 2h1v1h-1v-1z" fill="rgb(179,218,224)"/>
<path d="M10 2h1v1h-1v-1z" fill="rgb(191,209,225)"/>
<path d="M11 2h1v1h-1v-1z" fill="rgb(181,226,216)"/>
<path d="M12 2h1v1h-1v-1z" fill="rgb(178,219,211)"/>
<path d="M13 2h1v1h-1v-1z" fill="rgb(197,213,214)"/>
<path d="M14 2h1v1h-1v-1z" fill="rgb(178,225,223)"/>
<path d="M15 2h1v1h-1v-1z" fill="rgb(194,219,219)"/>
<path d="M16 2h4v2h-4v-2z" fill="rgb(37,37,37)"/>
<path d="M2 3h1v1h-1v-1z" fill="rgb(185,212,215)"/>
<path d="M3 3h1v1h-1v-1z" fill="rgb(183,213,220)"/>
<path d="M4 3h1v1h-1v-1z" fill="rgb(196,210,213)"/>
<path d="M5 3h1v1h-1v-1z" fill="rgb(183,214,224)"/>
<path d="M6 3h1v1h-1v-1z" fill="rgb(191,221,224)"/>
<path d="M7 3h1v1h-1v-1z" fill="rgb(190,220,227)"/>
<path d="M8 3h1v1h-1v-1z" fill="rgb(197,218,228)"/>
<path d="M9 3h1v1h-1v-1z" fill="rgb(190,216,225)"/>
<path d="M10 3h1v1h-1v-1z" fill="rgb(178,214,217)"/>
<path d="M11 3h1v1h-1v-1z" fill="rgb(183,224,229)"/>
<path d="M12 3h1v1h-1v-1z" fill="rgb(254,255,8)"/>
<path d="M13 3h1v1h-1v-1z" fill="rgb(190,214,212)"/>
<path d="M14 3h1v1h-1v-1z" fill="rgb(191,215,215)"/>
<path d="M15 3h1v1h-1v-1z" fill="rgb(195,222,218)"/>
<path d="M2 4h1v1h-1v-1z" fill="rgb(197,217,217)"/>
<path d="M3 4h1v1h-1v-1z" fill="rgb(188,225,228)"/>
<path d="M4 4h1v1h-1v-1z" fill="rgb(195,213,214)"/>
<path d="M5 4h1v1h-1v-1z" fill="rgb(193,215,221)"/>
<path d="M6 4h1v1h-1v-1z" fill="rgb(182,224,226)"/>
<path d="M7 4h1v1h-1v-1z" fill="rgb(196,213,227)"/>
<path d="M8 4h1v1h-1v-1z" fill="rgb(183,216,218)"/>
<path d="M9 4h1v1h-1v-1z" fill="rgb(183,223,223)"/>
<path d="M10 4h1v1h-1v-1z" fill="rgb(255,245,14)"/>
<path d="M11 4h1v1h-1v-1z" fill="rgb(255,255,0)"/>
<path d="M12 4h1v1h-1v-1z" fill="rgb(255,255,5)"/>
<path d="M13 4h1v1h-1v-1z" fill="rgb(247,249,2)"/>
<path d="M14 4h1v1h-1v-1z" fill="rgb(244,255,2)"/>
<path d="M15 4h1v1h-1v-1z" fill="rgb(183,214,220)"/>
<path d="M16 4h4v4h-2v-2h-2v-2z" fill="rgb(188,218,221)"/>
<path d="M20 4h2v4h-2v-4z" fill="rgb(37,37,37)"/>
<path d="M2 5h1v1h-1v-1z" fill="rgb(188,224,213)"/>
<path d="M3 5h1v1h-1v-1z" fill="rgb(195,225,225)"/>
<path d="M4 5h1v1h-1v-1z" fill="rgb(193,216,225)"/>
<path d="M5 5h1v1h-1v-1z" fill="rgb(180,210,223)"/>
<path d="M6 5h1v1h-1v-1z" fill="rgb(252,255,4)"/>
<path d="M7 5h1v1h-1v-1z" fill="rgb(188,224,217)"/>
<path d="M8 5h1v1h-1v-1z" fill="rgb(196,211,214)"/>
<path d="M9 5h1v1h-1v-1z" fill="rgb(248,255,0)"/>
<path d="M10 5h1v1h-1v-1z" fill="rgb(243,252,3)"/>
<path d="M11 5h1v1h-1v-1z" fill="rgb(248,255,11)"/>
<path d="M12 5h1v1h-1v-1z" fill="rgb(99,107,1)"/>
<path d="M13 5h1v1h-1v-1z" fill="rgb(57,50,4)"/>
<path d="M14 5h1v1h-1v-1z" fill="rgb(242,248,0)"/>
<path d="M15 5h1v1h-1v-1z" fill="rgb(179,219,215)"/>
<path d="M2 6h1v1h-1v-1z" fill="rgb(196,223,230)"/>
<path d="M3 6h1v1h-1v-1z" fill="rgb(182,222,224)"/>
<path d="M4 6h1v1h-1v-1z" fill="rgb(185,217,217)"/>
<path d="M5 6h1v1h-1v-1z" fill="rgb(183,218,214)"/>
<path d="M6 6h1v1h-1v-1z" fill="rgb(248,245,0)"/>
<path d="M7 6h1v1h-1v-1z" fill="rgb(242,242,6)"/>
<path d="M8 6h1v1h-1v-1z" fill="rgb(242,198,15)"/>
<path d="M9 6h1v1h-1v-1z" fill="rgb(246,193,11)"/>
<path d="M10 6h1v1h-1v-1z" fill="rgb(247,179,1)"/>
<path d="M11 6h1v1h-1v-1z" fill="rgb(253,255,3)"/>
<path d="M12 6h1v1h-1v-1z" fill="rgb(253,255,0)"/>
<path d="M13 6h1v1h-1v-1z" fill="rgb(101,105,0)"/>
<path d="M14 6h1v1h-1v-1z" fill="rgb(250,255,0)"/>
<path d="M15 6h1v1h-1v-1z" fill="rgb(188,215,220)"/>
<path d="M16 6h2v2h-2v-2z" fill="rgb(37,37,37)"/>
<path d="M2 7h1v1h-1v-1z" fill="rgb(179,210,222)"/>
<path d="M3 7h1v1h-1v-1z" fill="rgb(189,227,230)"/>
<path d="M4 7h1v1h-1v-1z" fill="rgb(187,217,215)"/>
<path d="M5 7h1v1h-1v-1z" fill="rgb(195,213,220)"/>
<path d="M6 7h1v1h-1v-1z" fill="rgb(255,247,0)"/>
<path d="M7 7h1v1h-1v-1z" fill="rgb(255,252,0)"/>
<path d="M8 7h1v1h-1v-1z" fill="rgb(247,255,7)"/>
<path d="M9 7h1v1h-1v-1z" fill="rgb(241,192,11)"/>
<path d="M10 7h1v1h-1v-1z" fill="rgb(248,186,12)"/>
<path d="M11 7h1v1h-1v-1z" fill="rgb(255,186,15)"/>
<path d="M12 7h1v1h-1v-1z" fill="rgb(250,249,6)"/>
<path d="M13 7h1v1h-1v-1z" fill="rgb(246,242,11)"/>
<path d="M14 7h1v1h-1v-1z" fill="rgb(191,224,227)"/>
<path d="M15 7h1v1h-1v-1z" fill="rgb(196,224,215)"/>
<path d="M2 8h1v1h-1v-1z" fill="rgb(192,219,217)"/>
<path d="M3 8h1v1h-1v-1z" fill="rgb(184,212,216)"/>
<path d="M4 8h1v1h-1v-1z" fill="rgb(187,211,229)"/>
<path d="M5 8h1v1h-1v-1z" fill="rgb(182,220,212)"/>
<path d="M6 8h1v1h-1v-1z" fill="rgb(254,247,0)"/>
<path d="M7 8h1v1h-1v-1z" fill="rgb(246,250,11)"/>
<path d="M8 8h1v1h-1v-1z" fill="rgb(255,246,6)"/>
<path d="M9 8h1v1h-1v-1z" fill="rgb(243,246,5)"/>
<path d="M10 8h1v1h-1v-1z" fill="rgb(240,190,11)"/>
<path d="M11 8h1v1h-1v-1z" fill="rgb(183,216,227)"/>
<path d="M12 8h1v1h-1v-1z" fill="rgb(189,212,227)"/>
<path d="M13 8h1v1h-1v-1z" fill="rgb(193,225,213)"/>
<path d="M14 8h1v1h-1v-1z" fill="rgb(196,215,228)"/>
<path d="M15 8h1v1h-1v-1z" fill="rgb(183,211,223)"/>
<path d="M16 8h2v2h-2v-2z" fill="rgb(188,218,221)"/>
<path d="M18 8h2v2h-2v-2z" fill="rgb(37,37,37)"/>
<path d="M20 8h2v8h-8v-2h2v-2h2v-2h2v-2z" fill="rgba(255,255,255,0)"/>
<path d="M2 9h1v1h-1v-1z" fill="rgb(187,211,218)"/>
<path d="M3 9h1v1h-1v-1z" fill="rgb(190,226,223)"/>
<path d="M4 9h1v1h-1v-1z" fill="rgb(190,227,214)"/>
<path d="M5 9h1v1h-1v-1z" fill="rgb(182,209,221)"/>
<path d="M6 9h1v1h-1v-1z" fill="rgb(250,255,0)"/>
<path d="M7 9h1v1h-1v-1z" fill="rgb(250,249,0)"/>
<path d="M8 9h1v1h-1v-1z" fill="rgb(255,255,6)"/>
<path d="M9 9h1v1h-1v-1z" fill="rgb(253,242,1)"/>
<path d="M10 9h1v1h-1v-1z" fill="rgb(245,243,5)"/>
<path d="M11 9h1v1h-1v-1z" fill="rgb(252,255,8)"/>
<path d="M12 9h1v1h-1v-1z" fill="rgb(185,208,223)"/>
<path d="M13 9h1v1h-1v-1z" fill="rgb(180,225,225)"/>
<path d="M14 9h1v1h-1v-1z" fill="rgb(184,216,227)"/>
<path d="M15 9h1v1h-1v-1z" fill="rgb(196,211,221)"/>
<path d="M2 10h1v1h-1v-1z" fill="rgb(192,218,228)"/>
<path d="M3 10h1v1h-1v-1z" fill="rgb(185,213,213)"/>
<path d="M4 10h1v1h-1v-1z" fill="rgb(181,216,214)"/>
<path d="M5 10h1v1h-1v-1z" fill="rgb(245,243,0)"/>
<path d="M6 10h1v1h-1v-1z" fill="rgb(255,255,6)"/>
<path d="M7 10h1v1h-1v-1z" fill="rgb(245,243,0)"/>
<path d="M8 10h1v1h-1v-1z" fill="rgb(242,248,6)"/>
<path d="M9 10h1v1h-1v-1z" fill="rgb(245,244,0)"/>
<path d="M10 10h1v1h-1v-1z" fill="rgb(255,255,14)"/>
<path d="M11 10h1v1h-1v-1z" fill="rgb(255,249,12)"/>
<path d="M12 10h1v1h-1v-1z" fill="rgb(194,218,212)"/>
<path d="M13 10h1v1h-1v-1z" fill="rgb(189,212,226)"/>
<path d="M14 10h1v1h-1v-1z" fill="rgb(190,227,228)"/>
<path d="M15 10h1v1h-1v-1z" fill="rgb(190,214,212)"/>
<path d="M16 10h2v2h-2v-2z" fill="rgb(37,37,37)"/>
<path d="M2 11h1v1h-1v-1z" fill="rgb(191,218,229)"/>
<path d="M3 11h1v1h-1v-1z" fill="rgb(184,218,227)"/>
<path d="M4 11h1v1h-1v-1z" fill="rgb(186,216,214)"/>
<path d="M5 11h1v1h-1v-1z" fill="rgb(190,224,214)"/>
<path d="M6 11h1v1h-1v-1z" fill="rgb(191,208,225)"/>
<path d="M7 11h1v1h-1v-1z" fill="rgb(36,31,41)"/>
<path d="M8 11h1v1h-1v-1z" fill="rgb(182,212,220)"/>
<path d="M9 11h1v1h-1v-1z" fill="rgb(180,209,211)"/>
<path d="M10 11h1v1h-1v-1z" fill="rgb(179,223,215)"/>
<path d="M11 11h1v1h-1v-1z" fill="rgb(39,34,45)"/>
<path d="M12 11h1v1h-1v-1z" fill="rgb(38,38,27)"/>
<path d="M13 11h1v1h-1v-1z" fill="rgb(197,223,215)"/>
<path d="M14 11h1v1h-1v-1z" fill="rgb(187,212,218)"/>
<path d="M15 11h1v1h-1v-1z" fill="rgb(186,212,220)"/>
<path d="M0 12h2v2h2v2h-4v-4z" fill="rgba(255,255,255,0)"/>
<path d="M2 12h2v2h-1v-1h-1v-1z" fill="rgb(37,37,37)"/>
<path d="M4 12h1v1h-1v-1z" fill="rgb(190,225,227)"/>
<path d="M5 12h1v1h-1v-1z" fill="rgb(194,225,211)"/>
<path d="M6 12h1v1h-1v-1z" fill="rgb(31,32,28)"/>
<path d="M7 12h1v1h-1v-1z" fill="rgb(194,227,225)"/>
<path d="M8 12h1v1h-1v-1z" fill="rgb(190,223,223)"/>
<path d="M9 12h1v1h-1v-1z" fill="rgb(178,227,219)"/>
<path d="M10 12h1v1h-1v-1z" fill="rgb(190,222,230)"/>
<path d="M11 12h1v1h-1v-1z" fill="rgb(179,219,228)"/>
<path d="M12 12h1v1h-1v-1z" fill="rgb(41,29,40)"/>
<path d="M13 12h1v1h-1v-1z" fill="rgb(194,210,218)"/>
<path d="M14 12h1v1h-1v-1z" fill="rgb(39,33,33)"/>
<path d="M15 12h1v1h-1v-1z" fill="rgb(45,38,35)"/>
<path d="M2 13h1v1h-1v-1z" fill="rgb(28,29,29)"/>
<path d="M4 13h1v1h-1v-1z" fill="rgb(189,212,230)"/>
<path d="M5 13h1v1h-1v-1z" fill="rgb(195,208,213)"/>
<path d="M6 13h1v1h-1v-1z" fill="rgb(179,219,212)"/>
<path d="M7 13h1v1h-1v-1z" fill="rgb(196,224,218)"/>
<path d="M8 13h1v1h-1v-1z" fill="rgb(192,216,221)"/>
<path d="M9 13h1v1h-1v-1z" fill="rgb(189,210,220)"/>
<path d="M10 13h1v1h-1v-1z" fill="rgb(178,223,218)"/>
<path d="M11 13h1v1h-1v-1z" fill="rgb(190,222,222)"/>
<path d="M12 13h1v1h-1v-1z" fill="rgb(187,216,227)"/>
<path d="M13 13h1v1h-1v-1z" fill="rgb(179,217,225)"/>
<path d="M14 13h1v1h-1v-1z" fill="rgb(40,44,40)"/>
<path d="M15 13h1v1h-1v-1z" fill="rgb(41,40,31)"/>
<path d="M4 14h10v2h-10v-2z" fill="rgb(37,37,37)"/>
</svg>

<svg xmlns="http://www.w3.org/2000/svg" width="22" height="16" preserveAspectRatio="xMinYMin meet"><path fill="rgba(255,255,255,0)" d="M0 0h2v2H0V0z"/><path fill="#252525" d="M2 0h14v2H2V0z"/><path fill="rgba(255,255,255,0)" d="M16 0h6v4h-2V2h-4V0z"/><path fill="#252525" d="M0 2h2v10H0V2z"/><path fill="#C5D3DF" d="M2 2h1v1H2V2z"/><path fill="#BDD0E3" d="M3 2h1v1H3V2z"/><path fill="#B7D2E0" d="M4 2h1v1H4V2z"/><path fill="#C3D2DF" d="M5 2h1v1H5V2z"/><path fill="#B6D3E5" d="M6 2h1v1H6V2z"/><path fill="#B6DBDA" d="M7 2h1v1H7V2z"/><path fill="#BCDFDD" d="M8 2h1v1H8V2z"/><path fill="#B3DAE0" d="M9 2h1v1H9V2z"/><path fill="#BFD1E1" d="M10 2h1v1h-1V2z"/><path fill="#B5E2D8" d="M11 2h1v1h-1V2z"/><path fill="#B2DBD3" d="M12 2h1v1h-1V2z"/><path fill="#C5D5D6" d="M13 2h1v1h-1V2z"/><path fill="#B2E1DF" d="M14 2h1v1h-1V2z"/><path fill="#C2DBDB" d="M15 2h1v1h-1V2z"/><path fill="#252525" d="M16 2h4v2h-4V2z"/><path fill="#B9D4D7" d="M2 3h1v1H2V3z"/><path fill="#B7D5DC" d="M3 3h1v1H3V3z"/><path fill="#C4D2D5" d="M4 3h1v1H4V3z"/><path fill="#B7D6E0" d="M5 3h1v1H5V3z"/><path fill="#BFDDE0" d="M6 3h1v1H6V3z"/><path fill="#BEDCE3" d="M7 3h1v1H7V3z"/><path fill="#C5DAE4" d="M8 3h1v1H8V3z"/><path fill="#BED8E1" d="M9 3h1v1H9V3z"/><path fill="#B2D6D9" d="M10 3h1v1h-1V3z"/><path fill="#B7E0E5" d="M11 3h1v1h-1V3z"/><path fill="#FEFF08" d="M12 3h1v1h-1V3z"/><path fill="#BED6D4" d="M13 3h1v1h-1V3z"/><path fill="#BFD7D7" d="M14 3h1v1h-1V3z"/><path fill="#C3DEDA" d="M15 3h1v1h-1V3z"/><path fill="#C5D9D9" d="M2 4h1v1H2V4z"/><path fill="#BCE1E4" d="M3 4h1v1H3V4z"/><path fill="#C3D5D6" d="M4 4h1v1H4V4z"/><path fill="#C1D7DD" d="M5 4h1v1H5V4z"/><path fill="#B6E0E2" d="M6 4h1v1H6V4z"/><path fill="#C4D5E3" d="M7 4h1v1H7V4z"/><path fill="#B7D8DA" d="M8 4h1v1H8V4z"/><path fill="#B7DFDF" d="M9 4h1v1H9V4z"/><path fill="#FFF50E" d="M10 4h1v1h-1V4z"/><path fill="#FF0" d="M11 4h1v1h-1V4z"/><path fill="#FFFF05" d="M12 4h1v1h-1V4z"/><path fill="#F7F902" d="M13 4h1v1h-1V4z"/><path fill="#F4FF02" d="M14 4h1v1h-1V4z"/><path fill="#B7D6DC" d="M15 4h1v1h-1V4z"/><path fill="#BCDADD" d="M16 4h4v4h-2V6h-2V4z"/><path fill="#252525" d="M20 4h2v4h-2V4z"/><path fill="#BCE0D5" d="M2 5h1v1H2V5z"/><path fill="#C3E1E1" d="M3 5h1v1H3V5z"/><path fill="#C1D8E1" d="M4 5h1v1H4V5z"/><path fill="#B4D2DF" d="M5 5h1v1H5V5z"/><path fill="#FCFF04" d="M6 5h1v1H6V5z"/><path fill="#BCE0D9" d="M7 5h1v1H7V5z"/><path fill="#C4D3D6" d="M8 5h1v1H8V5z"/><path fill="#F8FF00" d="M9 5h1v1H9V5z"/><path fill="#F3FC03" d="M10 5h1v1h-1V5z"/><path fill="#F8FF0B" d="M11 5h1v1h-1V5z"/><path fill="#636B01" d="M12 5h1v1h-1V5z"/><path fill="#393204" d="M13 5h1v1h-1V5z"/><path fill="#F2F800" d="M14 5h1v1h-1V5z"/><path fill="#B3DBD7" d="M15 5h1v1h-1V5z"/><path fill="#C4DFE6" d="M2 6h1v1H2V6z"/><path fill="#B6DEE0" d="M3 6h1v1H3V6z"/><path fill="#B9D9D9" d="M4 6h1v1H4V6z"/><path fill="#B7DAD6" d="M5 6h1v1H5V6z"/><path fill="#F8F500" d="M6 6h1v1H6V6z"/><path fill="#F2F206" d="M7 6h1v1H7V6z"/><path fill="#F2C60F" d="M8 6h1v1H8V6z"/><path fill="#F6C10B" d="M9 6h1v1H9V6z"/><path fill="#F7B301" d="M10 6h1v1h-1V6z"/><path fill="#FDFF03" d="M11 6h1v1h-1V6z"/><path fill="#FDFF00" d="M12 6h1v1h-1V6z"/><path fill="#656900" d="M13 6h1v1h-1V6z"/><path fill="#FAFF00" d="M14 6h1v1h-1V6z"/><path fill="#BCD7DC" d="M15 6h1v1h-1V6z"/><path fill="#252525" d="M16 6h2v2h-2V6z"/><path fill="#B3D2DE" d="M2 7h1v1H2V7z"/><path fill="#BDE3E6" d="M3 7h1v1H3V7z"/><path fill="#BBD9D7" d="M4 7h1v1H4V7z"/><path fill="#C3D5DC" d="M5 7h1v1H5V7z"/><path fill="#FFF700" d="M6 7h1v1H6V7z"/><path fill="#FFFC00" d="M7 7h1v1H7V7z"/><path fill="#F7FF07" d="M8 7h1v1H8V7z"/><path fill="#F1C00B" d="M9 7h1v1H9V7z"/><path fill="#F8BA0C" d="M10 7h1v1h-1V7z"/><path fill="#FFBA0F" d="M11 7h1v1h-1V7z"/><path fill="#FAF906" d="M12 7h1v1h-1V7z"/><path fill="#F6F20B" d="M13 7h1v1h-1V7z"/><path fill="#BFE0E3" d="M14 7h1v1h-1V7z"/><path fill="#C4E0D7" d="M15 7h1v1h-1V7z"/><path fill="#C0DBD9" d="M2 8h1v1H2V8z"/><path fill="#B8D4D8" d="M3 8h1v1H3V8z"/><path fill="#BBD3E5" d="M4 8h1v1H4V8z"/><path fill="#B6DCD4" d="M5 8h1v1H5V8z"/><path fill="#FEF700" d="M6 8h1v1H6V8z"/><path fill="#F6FA0B" d="M7 8h1v1H7V8z"/><path fill="#FFF606" d="M8 8h1v1H8V8z"/><path fill="#F3F605" d="M9 8h1v1H9V8z"/><path fill="#F0BE0B" d="M10 8h1v1h-1V8z"/><path fill="#B7D8E3" d="M11 8h1v1h-1V8z"/><path fill="#BDD4E3" d="M12 8h1v1h-1V8z"/><path fill="#C1E1D5" d="M13 8h1v1h-1V8z"/><path fill="#C4D7E4" d="M14 8h1v1h-1V8z"/><path fill="#B7D3DF" d="M15 8h1v1h-1V8z"/><path fill="#BCDADD" d="M16 8h2v2h-2V8z"/><path fill="#252525" d="M18 8h2v2h-2V8z"/><path fill="rgba(255,255,255,0)" d="M20 8h2v8h-8v-2h2v-2h2v-2h2V8z"/><path fill="#BBD3DA" d="M2 9h1v1H2V9z"/><path fill="#BEE2DF" d="M3 9h1v1H3V9z"/><path fill="#BEE3D6" d="M4 9h1v1H4V9z"/><path fill="#B6D1DD" d="M5 9h1v1H5V9z"/><path fill="#FAFF00" d="M6 9h1v1H6V9z"/><path fill="#FAF900" d="M7 9h1v1H7V9z"/><path fill="#FFFF06" d="M8 9h1v1H8V9z"/><path fill="#FDF201" d="M9 9h1v1H9V9z"/><path fill="#F5F305" d="M10 9h1v1h-1V9z"/><path fill="#FCFF08" d="M11 9h1v1h-1V9z"/><path fill="#B9D0DF" d="M12 9h1v1h-1V9z"/><path fill="#B4E1E1" d="M13 9h1v1h-1V9z"/><path fill="#B8D8E3" d="M14 9h1v1h-1V9z"/><path fill="#C4D3DD" d="M15 9h1v1h-1V9z"/><path fill="#C0DAE4" d="M2 10h1v1H2v-1z"/><path fill="#B9D5D5" d="M3 10h1v1H3v-1z"/><path fill="#B5D8D6" d="M4 10h1v1H4v-1z"/><path fill="#F5F300" d="M5 10h1v1H5v-1z"/><path fill="#FFFF06" d="M6 10h1v1H6v-1z"/><path fill="#F5F300" d="M7 10h1v1H7v-1z"/><path fill="#F2F806" d="M8 10h1v1H8v-1z"/><path fill="#F5F400" d="M9 10h1v1H9v-1z"/><path fill="#FFFF0E" d="M10 10h1v1h-1v-1z"/><path fill="#FFF90C" d="M11 10h1v1h-1v-1z"/><path fill="#C2DAD4" d="M12 10h1v1h-1v-1z"/><path fill="#BDD4E2" d="M13 10h1v1h-1v-1z"/><path fill="#BEE3E4" d="M14 10h1v1h-1v-1z"/><path fill="#BED6D4" d="M15 10h1v1h-1v-1z"/><path fill="#252525" d="M16 10h2v2h-2v-2z"/><path fill="#BFDAE5" d="M2 11h1v1H2v-1z"/><path fill="#B8DAE3" d="M3 11h1v1H3v-1z"/><path fill="#BAD8D6" d="M4 11h1v1H4v-1z"/><path fill="#BEE0D6" d="M5 11h1v1H5v-1z"/><path fill="#BFD0E1" d="M6 11h1v1H6v-1z"/><path fill="#241F29" d="M7 11h1v1H7v-1z"/><path fill="#B6D4DC" d="M8 11h1v1H8v-1z"/><path fill="#B4D1D3" d="M9 11h1v1H9v-1z"/><path fill="#B3DFD7" d="M10 11h1v1h-1v-1z"/><path fill="#27222D" d="M11 11h1v1h-1v-1z"/><path fill="#26261B" d="M12 11h1v1h-1v-1z"/><path fill="#C5DFD7" d="M13 11h1v1h-1v-1z"/><path fill="#BBD4DA" d="M14 11h1v1h-1v-1z"/><path fill="#BAD4DC" d="M15 11h1v1h-1v-1z"/><path fill="rgba(255,255,255,0)" d="M0 12h2v2h2v2H0v-4z"/><path fill="#252525" d="M2 12h2v2H3v-1H2v-1z"/><path fill="#BEE1E3" d="M4 12h1v1H4v-1z"/><path fill="#C2E1D3" d="M5 12h1v1H5v-1z"/><path fill="#1F201C" d="M6 12h1v1H6v-1z"/><path fill="#C2E3E1" d="M7 12h1v1H7v-1z"/><path fill="#BEDFDF" d="M8 12h1v1H8v-1z"/><path fill="#B2E3DB" d="M9 12h1v1H9v-1z"/><path fill="#BEDEE6" d="M10 12h1v1h-1v-1z"/><path fill="#B3DBE4" d="M11 12h1v1h-1v-1z"/><path fill="#291D28" d="M12 12h1v1h-1v-1z"/><path fill="#C2D2DA" d="M13 12h1v1h-1v-1z"/><path fill="#272121" d="M14 12h1v1h-1v-1z"/><path fill="#2D2623" d="M15 12h1v1h-1v-1z"/><path fill="#1C1D1D" d="M2 13h1v1H2v-1z"/><path fill="#BDD4E6" d="M4 13h1v1H4v-1z"/><path fill="#C3D0D5" d="M5 13h1v1H5v-1z"/><path fill="#B3DBD4" d="M6 13h1v1H6v-1z"/><path fill="#C4E0DA" d="M7 13h1v1H7v-1z"/><path fill="#C0D8DD" d="M8 13h1v1H8v-1z"/><path fill="#BDD2DC" d="M9 13h1v1H9v-1z"/><path fill="#B2DFDA" d="M10 13h1v1h-1v-1z"/><path fill="#BEDEDE" d="M11 13h1v1h-1v-1z"/><path fill="#BBD8E3" d="M12 13h1v1h-1v-1z"/><path fill="#B3D9E1" d="M13 13h1v1h-1v-1z"/><path fill="#282C28" d="M14 13h1v1h-1v-1z"/><path fill="#29281F" d="M15 13h1v1h-1v-1z"/><path fill="#252525" d="M4 14h10v2H4v-2z"/></svg>
